svg/300/outlined/lab_panel-fill.svg

<svg xmlns="http://www.w3.org/2000/svg" width="48" height="48" viewBox="0 -960 960 960"><path d="M117.694-140.001q-23.847 0-40.77-16.923-16.923-16.924-16.923-40.77v-204.612q0-23.846 16.923-40.77 16.923-16.923 40.77-16.923h22.307v-173.385h-3.846q-15.461-2.923-25.807-15.538-10.347-12.615-10.347-29.538v-74.615q0-19.23 13.462-32.692 13.461-13.461 32.691-13.461h227.692q19.23 0 32.691 13.461 13.462 13.462 13.462 32.692v74.615q0 16.923-10.347 29.538-10.346 12.615-25.807 15.538h-3.846v173.385h200.002v-173.385h-3.846q-15.461-2.923-25.807-15.538-10.347-12.615-10.347-29.538v-74.615q0-19.23 13.462-32.692 13.461-13.461 32.691-13.461h227.692q19.23 0 32.691 13.461 13.462 13.462 13.462 32.692v74.615q0 16.923-10.347 29.538-10.346 12.615-25.807 15.538h-3.846v173.385h22.307q23.846 0 40.77 16.923 16.923 16.924 16.923 40.77v204.612q0 23.846-16.923 40.77-16.924 16.923-40.77 16.923H117.694Zm507.691-319.998h149.23v-172.308h-149.23v172.308Zm-440 0h149.23v-172.308h-149.23v172.308Z"/></svg>

<svg xmlns="http://www.w3.org/2000/svg" width="48" height="48" viewBox="0 -960 960 960"><path d="M117.69-140q-23.84 0-40.77-16.92Q60-173.85 60-197.69v-204.62q0-23.84 16.92-40.77Q93.85-460 117.69-460H140v-173.38h-3.84q-15.47-2.93-25.81-15.54Q100-661.54 100-678.46v-74.61q0-19.24 13.46-32.7 13.46-13.46 32.69-13.46h227.7q19.23 0 32.69 13.46Q420-772.31 420-753.07v74.61q0 16.92-10.35 29.54-10.34 12.61-25.81 15.54H380V-460h200v-173.38h-3.84q-15.47-2.93-25.81-15.54Q540-661.54 540-678.46v-74.61q0-19.24 13.46-32.7 13.46-13.46 32.69-13.46h227.7q19.23 0 32.69 13.46Q860-772.31 860-753.07v74.61q0 16.92-10.35 29.54-10.34 12.61-25.81 15.54H820V-460h22.31q23.84 0 40.77 16.92Q900-426.15 900-402.31v204.62q0 23.84-16.92 40.77Q866.15-140 842.31-140H117.69Zm507.7-320h149.22v-172.31H625.39V-460Zm-440 0h149.22v-172.31H185.39V-460Z"/></svg>
